src/assets/svg/icons/fa/nuevos/classic/light/square-list classic light.svg

<svg xmlns="http://www.w3.org/2000/svg" viewBox="0 0 448 512"><!--! Font Awesome Pro 6.4.0 by @fontawesome - https://fontawesome.com License - https://fontawesome.com/license (Commercial License) Copyright 2023 Fonticons, Inc. --><path d="M64 64C46.3 64 32 78.3 32 96V416c0 17.7 14.3 32 32 32H384c17.7 0 32-14.3 32-32V96c0-17.7-14.3-32-32-32H64zM0 96C0 60.7 28.7 32 64 32H384c35.3 0 64 28.7 64 64V416c0 35.3-28.7 64-64 64H64c-35.3 0-64-28.7-64-64V96zm104 64a24 24 0 1 1 48 0 24 24 0 1 1 -48 0zm88 0c0-8.8 7.2-16 16-16H336c8.8 0 16 7.2 16 16s-7.2 16-16 16H208c-8.8 0-16-7.2-16-16zm0 96c0-8.8 7.2-16 16-16H336c8.8 0 16 7.2 16 16s-7.2 16-16 16H208c-8.8 0-16-7.2-16-16zm0 96c0-8.8 7.2-16 16-16H336c8.8 0 16 7.2 16 16s-7.2 16-16 16H208c-8.8 0-16-7.2-16-16zm-64-72a24 24 0 1 1 0-48 24 24 0 1 1 0 48zm-24 72a24 24 0 1 1 48 0 24 24 0 1 1 -48 0z"/></svg>

<svg xmlns="http://www.w3.org/2000/svg" viewBox="0 0 448 512"><path d="M128 184C114.7 184 104 173.3 104 160C104 146.7 114.7 136 128 136C141.3 136 152 146.7 152 160C152 173.3 141.3 184 128 184zM192 160C192 151.2 199.2 144 208 144H336C344.8 144 352 151.2 352 160C352 168.8 344.8 176 336 176H208C199.2 176 192 168.8 192 160zM192 256C192 247.2 199.2 240 208 240H336C344.8 240 352 247.2 352 256C352 264.8 344.8 272 336 272H208C199.2 272 192 264.8 192 256zM192 352C192 343.2 199.2 336 208 336H336C344.8 336 352 343.2 352 352C352 360.8 344.8 368 336 368H208C199.2 368 192 360.8 192 352zM128 232C141.3 232 152 242.7 152 256C152 269.3 141.3 280 128 280C114.7 280 104 269.3 104 256C104 242.7 114.7 232 128 232zM128 376C114.7 376 104 365.3 104 352C104 338.7 114.7 328 128 328C141.3 328 152 338.7 152 352C152 365.3 141.3 376 128 376zM0 96C0 60.65 28.65 32 64 32H384C419.3 32 448 60.65 448 96V416C448 451.3 419.3 480 384 480H64C28.65 480 0 451.3 0 416V96zM32 96V416C32 433.7 46.33 448 64 448H384C401.7 448 416 433.7 416 416V96C416 78.33 401.7 64 384 64H64C46.33 64 32 78.33 32 96z"/></svg>
